images/svg/c-.svg

<svg width="21" height="10" viewBox="0 0 21 10" fill="none" xmlns="http://www.w3.org/2000/svg">
<path d="M7.10809 7.12071L7.98624 8.01542C7.14673 8.97637 6.10846 9.45684 4.87135 9.45684C3.64528 9.45684 2.62356 9.06476 1.80618 8.28047C0.999844 7.48519 0.59668 6.48558 0.59668 5.2816C0.59668 4.06658 1.01089 3.06143 1.83931 2.26614C2.66774 1.45981 3.71156 1.05664 4.97076 1.05664C6.20787 1.05664 7.25171 1.52056 8.10221 2.4484L7.24065 3.3928C6.85404 3.01725 6.48954 2.75767 6.14713 2.61408C5.80471 2.47048 5.40154 2.39869 4.93762 2.39869C4.1092 2.39869 3.41332 2.66378 2.84999 3.19397C2.29771 3.72416 2.02157 4.39795 2.02157 5.21533C2.02157 6.02167 2.29771 6.70649 2.84999 7.26982C3.40228 7.83317 4.05949 8.11481 4.82164 8.11481C5.28556 8.11481 5.68321 8.03747 6.01457 7.88286C6.35699 7.72819 6.72148 7.47414 7.10809 7.12071Z" fill="white"/>
<path d="M20.25 5H15.75" stroke="white" stroke-width="1.5" stroke-linecap="square" stroke-linejoin="round"/>
<path d="M14.0915 0.481934L10.5498 10.0002H9.10449L12.6527 0.481934H14.0915Z" fill="white"/>
</svg>

<svg width="21" height="10" fill="none" xmlns="http://www.w3.org/2000/svg"><path d="M7.108 7.12l.878.895c-.84.961-1.878 1.442-3.115 1.442-1.226 0-2.247-.392-3.065-1.177C1 7.485.596 6.486.596 5.282c0-1.215.415-2.22 1.243-3.016.829-.806 1.873-1.21 3.132-1.21 1.237 0 2.28.465 3.131 1.392l-.861.945c-.387-.376-.751-.635-1.094-.779-.342-.144-.745-.215-1.21-.215-.828 0-1.524.265-2.087.795-.552.53-.828 1.204-.828 2.021 0 .807.276 1.491.828 2.055.552.563 1.21.845 1.972.845.464 0 .861-.078 1.193-.232.342-.155.706-.409 1.093-.762z" fill="#fff"/><path d="M20.25 5h-4.5" stroke="#fff" stroke-width="1.5" stroke-linecap="square" stroke-linejoin="round"/><path d="M14.091.482L10.55 10H9.104L12.653.482h1.438z" fill="#fff"/></svg>
